X: 14964
T: Geese In The Bog, The
R: jig
M: 6/8
K: Aminor
B|:cEE GEE|cEE GAB|cEE GED|EAA A2B|
cEE GEE|cEE GAB|cBA GED|EAA A2B:|
|:cde g3|eaa ged|cde ged|eag a3|
cde g2g|a2a ged|cBA GED|EAA A2B:|

